!!!!SEGMENT: pl-kk--kk-i-6--028-003_anonim--tempore-paschali-patrem.krn
!!!cenid: 16xx:1001
!!!COM: Anonim
!!!COM-rismID: pe30004985
!!!CDT:
!!!CNT:
!!!OPR: Tempore Paschali
!!!OTL: Patrem
!!!OMV: 003
!!!PDT:
!!!AGN: Sacred; Easter
!!!YEC: Copyright 2022 Narodowy Instytut Fryderyka Chopina (https://polishscores.org)
!!!YEM: License CC-BY-4.0 (https://creativecommons.org/licenses/by/4.0)
!!!SMS-siglum: PL-Kk
!!!SMS-shelfmark: Kk.I.6
!!!SMS-shelfwork: 028-003 M
!!!SMS-variant:
!!!SMS-altvar:
!!!NIFC-rismSourceID: 1001135513
!!!NIFC-rismChildID: 1001136067
!!!NIFC-islandoraID: pl-kk:1634
!!!URL-pdf-islandora: https://repozytorium.nifc.pl/islandora/object/pl-kk%3A1634/datastream/PDF/view
!!!URL-scan: https://polish.musicsources.pl/pl/lokalizacje/galeria/rekopisy/6133 @EN{Scan on Polish Music Sources Website} @PL{Skany w portalu Dziedzictwo Muzyki Polskiej w otwartym dostępie}
!!!IIIF:
!!!ONB-nifc: UWAGA: C (skan 0038-0042, s. 72-81), T (skan 0141-0148, s. 87-100), B (skan 0251-0258, s. 85-98) Części Mszy: 1. Kyrie, 2. Et in terra, 3. Patrem, 4. Sanctus, 5. Agnus Dei
!!!AIN: 1 empty 1 tenor 1 vox
!!!key:
**kern	**text	**kern	**text	**kern	**text
*part3	*	*part2	*	*part1	*
*staff3	*	*staff2	*	*staff1	*
*Iempty	*	*Itenor	*	*Ivox	*
*I"Baſsus.	*	*I"Tenor.	*	*I"Cantus.	*
*I'B	*	*I'T	*	*I'S	*
*clefF4	*	*clefC4	*	*clefC4	*
*k[]	*	*k[]	*	*k[]	*
*d:	*	*d:	*	*d:	*
*M2/1	*	*M2/1	*	*M2/1	*
*met(C|)	*	*met(C|)	*	*met(C|)	*
=1-	=1-	=1-	=1-	=1-	=1-
2r	.	2r	.	1D/	PA-
1D\	PA-	1F/	PA-	.	.
.	.	.	.	1A\	-trem
2D/	-trem	2F/	-trem	.	.
=2-	=2-	=2-	=2-	=2-	=2-
1C/	O-	1G/	O-	1E/	Om-
1GG/	-mni-	2B\	-mni-	1G/	-ni-
.	.	2B\	-po-	.	.
=3-	=3-	=3-	=3-	=3-	=3-
1D\	-po-	0A\	-ten-	1F/	-po-
1AA/	-ten-	.	.	1E/	-ten-
=4-	=4-	=4-	=4-	=4-	=4-
1D\	-te(m)	1F/	-tem	1D/	-tem
2D/	fa-	2F/	fa-	2A/	fa-
4BB/	-cto-	4G/	-cto-	4B\	-cto-
!	!	!	!	!LO:TX:t=P:problem=kreska pseudotaktowa	!
4BB/	-re(m)	4G/	-re(m)	4B\	-rem
=5-	=5-	=5-	=5-	=5-	=5-
2AA/	Cae-	2A/	Cae-	2c\	Cae-
*custos:AA	*	*	*	*custos:A	*
2GG#X/	-li	2B\	-li	2B\	-li
!LO:LB:g=original	!	!	!	!LO:LB:g=original	!
2AA/	et	2c\	et	2A/	et
*	*	*custos:A	*	*	*
!	!	!	!	!LO:TX:t=P:problem=kreska pseudotaktowa	!
!	!	!	!	!LO:TX:t=P:problem=♯ below	!
2E\	ter-	2B\	ter-	2G#X/	ter-
!	!	!LO:LB:g=original	!	!	!
=6-	=6-	=6-	=6-	=6-	=6-
2AA/	-ra	4A/	-rae	1A\	-rae
.	.	2A/	Vi-	.	.
4D/	vi-	.	.	.	.
4D/	-ſi-	4F/	-si-	.	.
4BB/	-bi-	2.G/	-bi-	4d\	vi-
4BB/	-li-	.	.	4d\	-ſi-
2GG/	-um	.	.	4B\	-bi-
!	!	!	!	!LO:TX:t=P:problem=kreska pseudotaktowa	!
.	.	4G/	-li-	4B\	-li-
=7-	=7-	=7-	=7-	=7-	=7-
2C/	O-	2G/	-um	2c\	-um
!	!	!	!	!LO:TX:t=P:problem=kreska pseudotaktowa	!
2FF/	.	1c\	Om-	(2A/	om-
2C/	.	.	.	2G/)	.
2D/	-mni-	2A/	-ni-	2F/	-ni-
=8-	=8-	=8-	=8-	=8-	=8-
!	!	!	!	!LO:TX:t=P:global:problem=oddech jako rozdzielacz słów, przeważnie na wysokości dźwięku poprzedzającego	!
!	!	!	!	!LO:TX:t=P:problem=kreska pseudotaktowa	!
1AA/	-um	1A\	-um	1E/,	-um
2D/	et	2A/	et	2D/	et
2F\	in-	2A/	in-	2A/	in-
=9-	=9-	=9-	=9-	=9-	=9-
2.C/	-ui-	2.c\	-ui-	2E/	-ui-
!	!	!	!	!LO:TX:t=P:problem=kreska pseudotaktowa	!
.	.	.	.	2G/	-ſi-
4C/	-si-	4e\	-si-	.	.
2D/	-bi-	2d\	-bi-	2F/	-bi-
*custos:D	*	*	*	*	*
!	!	!LO:TX:t=P:problem=♯ below	!	!	!
2AA/	-li-	2c#X\	-li-	2E/	-li-
!LO:LB:g=original	!	!	!	!	!
=10-	=10-	=10-	=10-	=10-	=10-
!	!	!	!	!LO:TX:t=P:problem=kreska pseudotaktowa	!
1D\	-um	1d\	-um	1D/,	-um
2G\	et	1r	.	1C/	et
2E\	in	.	.	.	.
=11-	=11-	=11-	=11-	=11-	=11-
*	*	*	*	*custos:E	*
2F\	v-	2d\	et	1D/	in
*	*	*custos:c	*	*	*
2D/	-num	2B\	in	.	.
!	!	!LO:LB:g=original	!	!LO:LB:g=original	!
2.C/	Do-	2c\	v-	1E/	v-
.	.	2c\	-num	.	.
4C/	-mi-	.	.	.	.
=12-	=12-	=12-	=12-	=12-	=12-
!	!	!	!	!LO:TX:t=P:problem=kreska pseudotaktowa	!
1D\	-num	2A/	Do-	1D/	-num
.	.	2B\	-mi-	.	.
1C/	Je-	1c\	-num	2G/	D(o-
.	.	.	.	4E/	-mi)-
!	!	!	!	!LO:TX:t=P:problem=kreska pseudotaktowa	!
.	.	.	.	4E/	-num
=13-	=13-	=13-	=13-	=13-	=13-
1FF/	-sum	2A/	Je-	2F/	no-
.	.	1c\	.	2A/	-ſtru(m)
*lig	*	*	*	*	*
1GG/	Chri-	.	.	2G/	Je-
.	.	2B-X\	-ſum	2F/	-ſu(m)
=14-	=14-	=14-	=14-	=14-	=14-
1AA/	.	1A\	Chri-	1E/	Chri-
*Xlig	*	*	*	*	*
!	!	!	!	!LO:TX:t=P:problem=kreska pseudotaktowa	!
1D\	-ſtum	1F/	-ſtum	1D/	-ſtu(m)
=15-	=15-	=15-	=15-	=15-	=15-
0r	.	2r	.	2D/	fi-
.	.	2A/	fi-	4A/	-li-
!	!	!	!	!LO:TX:t=P:problem=kreska pseudotaktowa	!
.	.	.	.	4A/	-um
.	.	4e\	-li-	2E/	De-
.	.	4e\	-um	.	.
!	!	!	!	!LO:TX:t=P:problem=kreska pseudotaktowa	!
.	.	4B\	De-	2G/	-i
.	.	4B\	-i	.	.
=16-	=16-	=16-	=16-	=16-	=16-
1r	.	4d\	v-	4F/	v-
.	.	4d\	-ni-	4F/	-ni-
.	.	4d\	-ge-	4E/	-ge-
!	!	!LO:TX:t=P:problem=♯ below	!	!LO:TX:t=P:problem=kreska pseudotaktowa	!
.	.	4c#X\	-ni-	4E/	-ni-
*	*	*custos:A	*	*custos:A	*
4r	.	1d\	-tum	1D/	-tum
2D/	et	.	.	.	.
4E\	ex	.	.	.	.
!	!	!LO:LB:g=original	!	!LO:LB:g=original	!
=17-	=17-	=17-	=17-	=17-	=17-
2F\	Pa-	1r	.	2A/	et
*custos:AA	*	*	*	*	*
!	!	!	!	!LO:TX:t=P:problem=kreska pseudotaktowa	!
2E\	-tre	.	.	2B\	ex
!LO:LB:g=original	!	!	!	!	!
2AA/	na-	2A/	et	2c\	Pa-
!	!	!	!	!LO:TX:t=P:problem=kreska pseudotaktowa	!
2GG/	.	2B\	ex	2B\	-tre
=18-	=18-	=18-	=18-	=18-	=18-
2AA/	.	4c\	Pa-	2A/	na-
.	.	4c\	-tre	.	.
!	!	!	!	!LO:TX:t=P:problem=kreska pseudotaktowa	!
2E\	.	2B\	na-	2G/	.
2AA/	-tum	4A/	-tum	1A\,	-tum
.	.	2A/	an-	.	.
2D/	an-	.	.	.	.
.	.	4F/	-te	.	.
=19-	=19-	=19-	=19-	=19-	=19-
2BB/	-te	2.G/	om-	2d\	an-
!	!	!	!	!LO:TX:t=P:problem=kreska pseudotaktowa	!
4GG/	om-	.	.	2B\	-te
4GG/	.	4G/	-ni-	.	.
2C/	-ni-	2G/	-a	2c\	Om-
2FF/	-a	1c\	Sae-	4A/	-ni-
!	!	!	!	!LO:TX:t=P:problem=kreska pseudotaktowa	!
.	.	.	.	4A/	-a
=20-	=20-	=20-	=20-	=20-	=20-
2C/	Sae-	.	.	2G/	ſae-
2D/	-cu-	2A/	-cu-	2F/	-cu-
!	!	!	!	!LO:TX:t=P:problem=kreska pseudotaktowa	!
1AA/	-la	1A\,	-la	1E/	-la
=21-	=21-	=21-	=21-	=21-	=21-
2AA/	De-	2E/	De-	2C/	De-
4D/	-um	4F/	-um	4D/	-um
!	!	!	!	!LO:TX:t=P:problem=kreska pseudotaktowa	!
4D/	de	4F/	de	4D/	de
2C/	De-	2G/	De-	2E/	De-
*custos:C	*	*custos:c	*	*custos:G	*
2BB/	.	2G/	-o	2D/	-o
!LO:LB:g=original	!	!LO:PB:g=original	!	!LO:LB:g=original	!
=22-	=22-	=22-	=22-	=22-	=22-
2C/	-o	2c\	lu-	2G/	lu-
!	!	!	!	!LO:TX:t=P:problem=kreska pseudotaktowa	!
2C/	lu-	2c\	-men	2E/	-men
2D/	-men	1A\	de	(2F/	de
2F\	de	.	.	2A/	.
=23-	=23-	=23-	=23-	=23-	=23-
2C/	lu-	2c\	.	2G/)	.
!	!	!	!	!LO:TX:t=P:problem=kreska pseudotaktowa	!
2D/	.	1A\	lu-	2F/	lu-
2.AA/	.	.	.	1E/	-mi-
.	.	2A/	-mi-	.	.
4AA/	-mi-	.	.	.	.
=24-	=24-	=24-	=24-	=24-	=24-
!	!	!	!	!LO:TX:t=P:problem=kreska pseudotaktowa	!
2D/	-ne	2A/	-ne	1D/	-ne
1D\	De-	1d\	De-	.	.
.	.	.	.	2A/	De-
2E\	-um	2B\	-um	2G/	-um
=25-	=25-	=25-	=25-	=25-	=25-
2F\	ve-	2A/	ve-	2A/	ve-
!	!	!	!	!LO:TX:t=P:problem=kreska pseudotaktowa	!
2A\	-rum	2A/	-rum	2c\	-rum
4D/	de	4A/	de	4d\	de
4D/	De-	4A/	De-	4d\	De-
!	!	!	!	!LO:TX:t=P:problem=kreska pseudotaktowa	!
2GG/	-o	2B\	-o	2d\	-o
=26-	=26-	=26-	=26-	=26-	=26-
2D/	Ve-	2d\	ve-	2A/	ve-
!	!	!	!	!LO:TX:t=P:problem=kreska pseudotaktowa	!
2D/	-ro	2d\	-ro	2A/	-ro
*	*	*custos:d	*	*	*
2.F\	ge-	00r	.	2A/	ge-
*	*	*	*	*custos:G	*
.	.	.	.	2c\	-ni-
*custos:e	*	*	*	*	*
4F\	-ni-	.	.	.	.
!LO:LB:g=original	!	!	!	!LO:PB:g=original	!
=27-	=27-	=27-	=27-	=27-	=27-
2E\	-tum	.	.	2G/	-tum
1D\	non	.	.	2F/	non
*	*	*	*	*lig	*
.	.	.	.	1E/	fa-
!LO:TX:t=P:problem=♯ below	!	!	!	!	!
2C#X/	fa-	.	.	.	.
=28-	=28-	=28-	=28-	=28-	=28-
2D/	-ctu(m)	.	.	1F/	.
2.D/	Con-	.	.	.	.
*	*	*	*	*Xlig	*
!	!	!LO:LB:g=original	!	!	!
!	!	!	!	!LO:TX:t=P:problem=kreska pseudotaktowa	!
.	.	2.d\	Con-	1D/	-ctum
4D/	-ſub-	.	.	.	.
4D/	-ſtan-	.	.	.	.
4D/	-ti-	4d\	-sub-	.	.
=29-	=29-	=29-	=29-	=29-	=29-
2BB/	-a-	4d\	-stan-	4G/	Con-
.	.	4d\	-ti-	4G/	-ſub-
2GG/	-lem	2B\	-a-	4G/	-ſtan-
!	!	!	!	!LO:TX:t=P:problem=kreska pseudotaktowa	!
.	.	.	.	4G/	-ti-
2.C/	Pa-	1G/	-lem	2E/	-a-
!	!	!	!	!LO:TX:t=P:problem=kreska pseudotaktowa	!
.	.	.	.	2C/	-lem
4BB/	.	.	.	.	.
=30-	=30-	=30-	=30-	=30-	=30-
2AA/	.	(<2A/	Pa-	2F/	Pa-
2GG/	.	2B\)	.	2G/	.
!	!	!	!	!LO:TX:t=P:problem=kreska pseudotaktowa	!
1FF/	-tri	1c\	-tri	1A\,	-tri
=31-	=31-	=31-	=31-	=31-	=31-
2F\	per	2c\	per	2A/	per
!	!	!	!	!LO:TX:t=P:problem=kreska pseudotaktowa	!
2F\	quem	2c\	quem	2F/	quem
2C/	Om-	2c\	om-	2G/	Om-
4D/	-ni-	4A/	-ni-	4F/	-ni-
*custos:AA	*	*	*	*	*
!	!	!	!	!LO:TX:t=P:problem=kreska pseudotaktowa	!
4D/	-a	4A/	-a	4F/	-a
!LO:PB:g=original	!	!	!	!	!
=32-	=32-	=32-	=32-	=32-	=32-
2.AA/	fa-	2.A/	fa-	2E/	fa-
*	*	*	*	*custos:D	*
.	.	.	.	2E/	-cta
4AA/	-cta	4A/	-cta	.	.
!	!	!	!	!LO:LB:g=original	!
!	!	!	!	!LO:TX:t=P:problem=kreska pseudotaktowa	!
1D\	Sunt	1F/	ſunt	1D/	Sunt
=33-	=33-	=33-	=33-	=33-	=33-
2D/	Qui	2A/	qui	2D/	qui
*	*	*custos:d	*	*	*
2C/	pro-	2c\	pro-	2E/	pro-
!	!	!LO:LB:g=original	!	!	!
2BB/	-pter	2d\	-pter	2G/	-pter
!	!	!	!	!LO:TX:t=P:problem=kreska pseudotaktowa	!
2C/	nos	2.e\	nos	2E/	nos
=34-	=34-	=34-	=34-	=34-	=34-
4.FF/	ho-	.	.	2F/	ho-
.	.	2d\	ho-	.	.
8GG/	.	.	.	.	.
4AA/	.	.	.	2E/	-mi-
!	!	!LO:SIC:v:o=4c\	!	!	!
4AA/	-mi-	4c#	-mi-	.	.
!	!	!	!	!LO:TX:t=P:problem=kreska pseudotaktowa	!
4D,/	-nes	1d\	-nes	1D/	-nes
4D/	et	.	.	.	.
4E\	pro-	.	.	.	.
4E\	-pter	.	.	.	.
=35-	=35-	=35-	=35-	=35-	=35-
2F\	no-	1r	.	2A/	et
4G\	-ſtram	.	.	4B\	pro-
*custos:A	*	*	*	*	*
!	!	!	!	!LO:TX:t=P:problem=kreska pseudotaktowa	!
4G\	Sa-	.	.	4B\	-pter
!LO:LB:g=original	!	!	!	!	!
4.A\	-lu-	2A/	et	2c\	no-
8B\	.	.	.	.	.
4c\	.	4A/	pro-	4A/	-ſtra(m)
!	!	!	!	!LO:TX:t=P:problem=kreska pseudotaktowa	!
4B\	-tem	4B\	-pter	4G/	ſa-
=36-	=36-	=36-	=36-	=36-	=36-
4A\	.	2c\	no-	2A/	-lu-
2AA/	de-	.	.	.	.
.	.	4A/	-ſtra(m)	4E/	-te(m)
!	!	!	!	!LO:TX:t=P:problem=kreska pseudotaktowa	!
4C/	-ſcen-	4G/	ſa-	4E/	de-
1GG/	-dit	2B\	-lu-	2G/	-ſcen-
!	!	!	!	!LO:TX:t=P:problem=kreska pseudotaktowa	!
.	.	2B\	-te(m)	2G/	-dit
=37-	=37-	=37-	=37-	=37-	=37-
2C/	de	2c\	de-	2E/	de
2BB/	.	2.G/	-scen-	2D/	Cae-
1AA/	.	.	.	2C/	.
.	.	4G/	-dit	.	.
!	!	!LO:SIC:v:o=2F/	!	!	!
.	.	2F#	de	2D/	.
=38-	=38-	=38-	=38-	=38-	=38-
!	!	!	!	!LO:N:vis=1	!
0GG/	Cae-	0G/	Cae-	0D/	.
=39-	=39-	=39-	=39-	=39-	=39-
0C/;	-lis.	0G/;	-lis.	0E/;	-lis.
!LO:LB:g=original	!	!LO:LB:g=original	!	!LO:LB:g=original	!
=40||-	=40||-	=40||-	=40||-	=40||-	=40||-
*M2/1	*	*M2/1	*	*M2/1	*
*met(C|)	*	*met(C|)	*	*met(C|)	*
2r	.	2r	.	1D/	ET
2D/	ET	1A\	ET	.	.
1D\	in	.	.	1F/	in
.	.	2A/	in	.	.
=41-	=41-	=41-	=41-	=41-	=41-
1C/	car-	1c\	car-	1G/	Car-
2FF/	-na-	2A/	-na-	2F/	-na-
2C/	-tus	2E/	-tus	2G/	-tus
=42-	=42-	=42-	=42-	=42-	=42-
1FF/	eſt	1F/	eſt	1A\	eſt
1AA/	de	1A\	de	1E/	de
=43-	=43-	=43-	=43-	=43-	=43-
1D\	Spi-	1A\	Spi-	1F/	Spi-
2D/	-ri-	2A/	-ri-	2F/	-ri-
2D/	-tu	2B\	-tu	2F/	-tu
=44-	=44-	=44-	=44-	=44-	=44-
1C/	San-	1c\	San-	1G/	San-
1C/	-cto	1c\	-cto	1G/	-cto
=45-	=45-	=45-	=45-	=45-	=45-
1C/	ex	1e\	ex	1c\	ex
*custos:G	*	*custos:d	*	*	*
1C/	Ma-	1e\	Ma-	1c\	Ma-
!LO:LB:g=original	!	!LO:LB:g=original	!	!	!
=46-	=46-	=46-	=46-	=46-	=46-
2G\	-ri-	2d\	-ri-	2B\	-ri-
*	*	*	*	*custos:A	*
2E\	-a	2c\	-a	2G/	-a
!	!	!	!	!LO:LB:g=original	!
2.D/	Vir-	2.d\	Vir-	2A/	Vir-
.	.	.	.	2B\	-gi-
4D/	-gi-	4d\	-gi-	.	.
=47-	=47-	=47-	=47-	=47-	=47-
1C/	-ne	1G/	-ne	1c\	-ne
1C/	et	2r	.	1c\	et
.	.	2c\	et	.	.
=48-	=48-	=48-	=48-	=48-	=48-
1FF/	ho-	1.c\	ho-	1A\	ho-
1GG/	-mo	.	.	1G/	-mo
.	.	2B-X\	-mo	.	.
=49-	=49-	=49-	=49-	=49-	=49-
1.AA/	fa-	1.A\	fa-	1F/	fa-
.	.	.	.	1E/	-ctus
2AA/	-ctus	2A/	-ctus	.	.
=50-	=50-	=50-	=50-	=50-	=50-
0D\;	eſt.	0F/	eſt.	0D/;	eſt
!LO:LB:g=original	!	!LO:LB:g=original	!	!LO:LB:g=original	!
=51||-	=51||-	=51||-	=51||-	=51||-	=51||-
*k[b-]	*	*k[b-]	*	*k[b-]	*
*M2/1	*	*M2/1	*	*M2/1	*
*met(C|)	*	*met(C|)	*	*met(C|)	*
0r	.	0r	.	1d\	Cru-
.	.	.	.	1A\	-ci-
=52-	=52-	=52-	=52-	=52-	=52-
1r	.	1A\	Cru-	1c\	-fi-
1D\	Cru-	1D/	-ci-	2d\	-xus
.	.	.	.	1f\	e-
=53-	=53-	=53-	=53-	=53-	=53-
2AA/	-ci-	2F/	-fi-	.	.
2C/	-fi-	2G/	-xus	2e\	-ti-
2D/	-xus	2.F/	e-	1d\	-am
1F\	e-	.	.	.	.
.	.	4F/	-ti-	.	.
=54-	=54-	=54-	=54-	=54-	=54-
.	-ti-	2A/	-am	1c\	pro
2E\	-ti-	2G/	pro	.	.
4D/	-am	2F/	no-	1B-\	no-
4C/	pro	.	.	.	.
2BB-/	no-	2F/	-bis	.	.
=55-	=55-	=55-	=55-	=55-	=55-
2FF/	-bis	4r	.	1A\	-bis
.	.	4c\	Sub	.	.
2F\	Sub	2.A/	Pon-	.	.
2.D/	Pon-	.	.	1f\	Sub
.	.	4G/	-ti-	.	.
*	*	*custos:B	*	*	*
.	.	2F/	-o	.	.
4C/	-ti-	.	.	.	.
!	!	!LO:PB:g=original	!	!	!
=56-	=56-	=56-	=56-	=56-	=56-
!	!	!LO:SIC:v:o=1c\	!	!	!
4BB-/	-o	1B-	Pi-	1d\	Pon-
4BB-/	Pi-	.	.	.	.
1B-\	-la-	.	.	.	.
.	.	2F/	-la-	1c\	-ti-
*custos:B	*	*	*	*	*
2A\	.	4F/	-to	.	.
.	.	4f\	Sub	.	.
!LO:LB:g=original	!	!	!	!	!
=57-	=57-	=57-	=57-	=57-	=57-
2B-,\	-to	2.d\	Pon-	1B-\	-o
2B-\	ſub	.	.	.	.
.	.	4c\	-ti-	.	.
2.G\	Pon-	1B-\	-o	1d\	Pi-
4F\	-ti-	.	.	.	.
=58-	=58-	=58-	=58-	=58-	=58-
*	*	*	*	*custos:B	*
2E-X\	-o	2G/	Pi-	1c\	-la-
2C/	Pi-	2.A/	-la-	.	.
!	!	!	!	!LO:LB:g=original	!
0D\	-la-	.	.	1B-\	-to
.	.	4G/	.	.	.
.	.	1G/	.	.	.
=59-	=59-	=59-	=59-	=59-	=59-
.	.	.	.	1A\	paſ-
.	.	2F#X/	.	.	.
1GG/	-to	1G/	-to	1G/	-sus
=60-	=60-	=60-	=60-	=60-	=60-
2r	.	2r	.	1d\	et
2BB-/	paſ-	1B-\	paſ-	.	.
1FF/	-sus	.	.	1c\	ſe-
.	.	2A/	-sus	.	.
=61-	=61-	=61-	=61-	=61-	=61-
2FF/	et	2c\	et	1A\	.
2FF/	ſe-	2.A/	ſe-	.	.
2.BB-/	-pul-	.	.	1B-\	-pul-
.	.	4G/	.	.	.
.	.	1G/	-pul-	.	.
4C/	.	.	.	.	.
=62-	=62-	=62-	=62-	=62-	=62-
2.D\	-tus	.	.	1A\	-tus
.	.	2F#X/	-tus	.	.
4D\	.	.	.	.	.
0GG/	eſt	0G/	eſt.	0G/	eſt.
!LO:PB:g=original	!	!LO:LB:g=original	!	!LO:PB:g=original	!
=63||-	=63||-	=63||-	=63||-	=63||-	=63||-
*k[]	*	*k[]	*	*k[]	*
*M2/1	*	*M2/1	*	*M2/1	*
*met(C|)	*	*met(C|)	*	*met(C|)	*
2D/	ET	2A/	ET	2d\	ET
4AA/	re-	4A/	re-	4c\	re-
!	!	!	!	!LO:TX:t=P:problem=kreska pseudotaktowa	!
4AA/	-ſur-	4A/	-ſur-	4c\	-ſur-
2D/	-re-	2A/	-re-	2d\	-re-
!	!	!	!	!LO:TX:t=P:problem=kreska pseudotaktowa	!
2D/	-xit	2A/	-xit	2A/	-xit
=64-	=64-	=64-	=64-	=64-	=64-
2GG/	ter-	2B\	ter-	2d\	ter-
4AA/	-ti-	4A/	-ti-	4c\	-ti-
!	!	!LO:TX:t=P:problem=♯ below	!	!LO:TX:t=P:problem=kreska pseudotaktowa	!
4E\	-a	4G#X/	-a	4B\	-a
2AA/	di-	2A/	di-	2c\	di-
!	!	!	!	!LO:TX:t=P:problem=kreska pseudotaktowa	!
2AA/	-e	2E/	-e	2A/	-e
=65-	=65-	=65-	=65-	=65-	=65-
2C/	Se-	2c\	Se-	2G/	ſe-
2FF/	-cun-	2c\	-cun-	2A/	-cun-
4C/	-du(m)	4c\	-du(m)	4G/	-du(m)
4D/	Scri-	4A/	Scri-	4F/	ſcri-
!	!	!	!	!LO:TX:t=P:problem=kreska pseudotaktowa	!
2AA/	-ptu-	2A/	-ptu-	2E/	-ptu-
=66-	=66-	=66-	=66-	=66-	=66-
*	*	*custos:A	*	*	*
2D/	-ras	1A\	-ras	1D/	-ras
4D/	et	.	.	.	.
*custos:D	*	*	*	*	*
4C/	a-	.	.	.	.
!LO:LB:g=original	!	!LO:LB:g=original	!	!	!
2D/	-scen-	1r	.	2A/	et
*	*	*	*	*custos:A	*
!	!	!	!	!LO:TX:t=P:problem=kreska pseudotaktowa	!
4E\	-dit	.	.	2G/	a-
4E\	in	.	.	.	.
!	!	!	!	!LO:LB:g=original	!
=67-	=67-	=67-	=67-	=67-	=67-
2F\	Ca-	2A/	et	2A/	-ſcen-
!	!	!	!	!LO:TX:t=P:problem=kreska pseudotaktowa	!
2G\	.	2G/	a-	2B\	-dit
2D/	.	2A/	-scen-	2d\	in
2GG/	.	4B\	-dit	2d\	Cae-
.	.	4B\	in	.	.
=68-	=68-	=68-	=68-	=68-	=68-
!	!	!	!	!LO:TX:t=P:problem=kreska pseudotaktowa	!
1D\	-lum	2d\	Cae-	1A\	-lum
.	.	2d\	-lum	.	.
2F\	Se-	2c\	Se-	2A/	ſe-
4FF/	-det	4A/	-det	4c\	-det
!	!	!	!	!LO:TX:t=P:problem=kreska pseudotaktowa	!
4FF/	ad	4A/	ad	4c\	ad
=69-	=69-	=69-	=69-	=69-	=69-
2C/	dex-	2c\	dex-	2G/	dex-
4D/	-te-	4A/	-te-	4F/	-te-
!	!	!	!	!LO:TX:t=P:problem=kreska pseudotaktowa	!
4D/	-ram	4A/	-ra(m)	4F/	-ram
1AA/	Pa-	1A\	Pa-	1E/	Pa-
=70-	=70-	=70-	=70-	=70-	=70-
*	*	*	*	*lig	*
1D\	-tris	1A\	-tris	1F/	-tris
*custos:GG	*	*	*	*	*
!	!	!	!	!LO:TX:t=P:problem=kreska pseudotaktowa	!
0r	.	2A/	Et	1D/	.
.	.	4B\	i-	.	.
*	*	*custos:d	*	*	*
.	.	4B\	-te-	.	.
*	*	*	*	*Xlig	*
!	!	!LO:LB:g=original	!	!	!
=71-	=71-	=71-	=71-	=71-	=71-
.	.	2d\	-rum	2D/	Et
.	.	1B\	ven-	4E/	i-
!	!	!	!	!LO:TX:t=P:problem=kreska pseudotaktowa	!
.	.	.	.	4E/	-te-
!LO:LB:g=original	!	!	!	!	!
2GG/	Et	.	.	2G/	-rum
!	!	!	!	!LO:TX:t=P:problem=kreska pseudotaktowa	!
4AA/	i-	4c\	.	2E/	ven-
4C/	-te-	2e\	-tu-	.	.
=72-	=72-	=72-	=72-	=72-	=72-
4.FF/	-rum	.	.	2F/	-tu-
.	.	2d\	-rus	.	.
8GG/	Ven-	.	.	.	.
*	*	*	*	*custos:D	*
4AA/	-tu-	.	.	2E/	-rus
4AA/	-rus	4c#X\	.	.	.
!	!	!	!	!LO:LB:g=original	!
4D/	eſt	2d\	eſt	1D/	eſt
4D/	cum	.	.	.	.
4E\	glo-	2r	.	.	.
4E\	-ri-	.	.	.	.
=73-	=73-	=73-	=73-	=73-	=73-
2F\	-a	1r	.	2A/	cum
4G\	iu-	.	.	4B\	glo-
!	!	!	!	!LO:TX:t=P:problem=kreska pseudotaktowa	!
4G\	-di-	.	.	4B\	-ri-
4.A\	-ca-	2A/	Cum	2c\	-a
8B\	.	.	.	.	.
4c\	.	4A/	glo-	4A/	iu-
!	!	!	!	!LO:TX:t=P:problem=kreska pseudotaktowa	!
4B\	.	4B\	-ri-	4G/	-di-
=74-	=74-	=74-	=74-	=74-	=74-
4A\	-re	2c\	-a	2A/	-ca-
2AA/	Vi-	.	.	.	.
.	.	4A/	iu-	4E/	-re
*custos:GG	*	*	*	*	*
!	!	!	!	!LO:TX:t=P:problem=kreska pseudotaktowa	!
4C/	-uos	4G/	-di-	4E/	Vi-
!LO:LB:g=original	!	!	!	!	!
2GG/	et	4B\	-ca-	2G/	-uos
.	.	4B\	-re	.	.
4C/	mor-	4G/	vi-	(4E/	et
4BB/	.	4G/	-uos	4D/)	.
=75-	=75-	=75-	=75-	=75-	=75-
2AA/	-tu-	2F/	et	2C/	mor-
2GG/	-os	4G/	mor-	2D/	-tu-
*	*	*custos:G	*	*	*
.	.	4G/	-tu-	.	.
!	!	!LO:LB:g=original	!	!	!
!	!	!	!	!LO:TX:t=P:problem=kreska pseudotaktowa	!
1C/	Cu-	1G/	-os	1E/,	-os
=76-	=76-	=76-	=76-	=76-	=76-
2GG/	-ius	2.G/	Cu-	2D/	Cu-
2C/	re-	.	.	2E/	-ius
.	.	4G/	-ius	.	.
2BB/	-gni	2G/	re-	2G/	re-
*	*	*	*	*custos:F	*
!	!	!	!	!LO:TX:t=P:problem=kreska pseudotaktowa	!
2C/	non	2G/	-gni	2E/	-gni
!	!	!	!	!LO:LB:g=original	!
=77-	=77-	=77-	=77-	=77-	=77-
4F\	e-	4A/	non	4F/	non
4D/	-rit	4F/	e-	4F/	e-
(4AA/	fi-	4A/	-rit	4E/	-rit
!	!	!	!	!LO:TX:t=P:problem=kreska pseudotaktowa	!
4AA/)	.	4A/	fi-	4E/	fi-
!	!	!	!	!LO:TX:t=P:problem=kreska pseudotaktowa	!
2D,/	-nis	2A/	-nis	1D/	-nis
1D\	Et	1d\	Et	.	.
=78-	=78-	=78-	=78-	=78-	=78-
.	.	.	.	2A/	Et
!	!	!LO:TX:t=P:problem=♯ below	!	!LO:TX:t=P:problem=kreska pseudotaktowa	!
2AA/	in	2c#X\	in	2A/	in
4D/	Spi-	4d\	Spi-	4F/	ſpi-
4D/	-ri-	4d\	-ri-	4F/	-ri-
*custos:C	*	*	*	*	*
!	!	!	!	!LO:TX:t=P:problem=kreska pseudotaktowa	!
2D/	-tum	2d\	-tum	2A/	-tum
!LO:LB:g=original	!	!	!	!	!
=79-	=79-	=79-	=79-	=79-	=79-
4C/	San-	4e\	San-	4c\	San-
4FF/	-ctum	4c\	-ctu(m)	4A/	-ctu(m)
4BB-X/	Do-	4d\	D(o-	4B-X\	D(o-
!	!	!	!	!LO:TX:t=P:problem=kreska pseudotaktowa	!
4C/	-mi-	4c\	-mi)-	4G/	-mi)-
2F\	-nu(m)	2c\	-num	1A\	-num
*	*	*custos:A	*	*	*
1D\	et	2r	.	.	.
!	!	!LO:LB:g=original	!	!	!
=80-	=80-	=80-	=80-	=80-	=80-
.	.	2.A/	et	2d\	et
!	!	!	!	!LO:TX:t=P:problem=kreska pseudotaktowa	!
2D/	Vi-	.	.	2d\	Vi-
.	.	4A/	vi-	.	.
2D/	-ui-	2d\	-ui-	2A/	-ui-
2GG/	-fi-	2.B\	-fi-	2d\	-fi-
=81-	=81-	=81-	=81-	=81-	=81-
2AA/	-can-	.	.	(2c\	-can-
.	.	2A/	-can-	.	.
*	*	*	*	*custos:A	*
2E\	.	.	.	2B\)	.
!	!	!LO:TX:t=P:problem=♯ below	!	!	!
.	.	4G#X/	.	.	.
!	!	!	!	!LO:LB:g=original	!
!	!	!	!	!LO:TX:t=P:problem=kreska pseudotaktowa	!
1AA/	-tem	1A\	-tem	1A\	-tem
=82-	=82-	=82-	=82-	=82-	=82-
1FF/	Qui	2r	.	2A/	qui
!	!	!	!	!LO:TX:t=P:problem=kreska pseudotaktowa	!
.	.	2A/	qui	2c\	ex
2FF/	ex	2A/	ex	4c\	Pa-
.	.	.	.	4A/	.
4BB-X/	Pa-	4d\	Pa-	4B-X\	-tre
!	!	!	!	!LO:TX:t=P:problem=kreska pseudotaktowa	!
4C/	-tre	4c\	-tre	4G/	.
=83-	=83-	=83-	=83-	=83-	=83-
4F\	fi-	4A/	et	2F/	fi-
4D/	.	2d\	fi-	.	.
*custos:D	*	*	*	*	*
2AA/	-li-	.	.	2E/	-li-
!LO:LB:g=original	!	!LO:TX:t=P:problem=♯ below	!	!	!
.	.	4c#X\	-li-	.	.
1D\	-o-	2d\	-o-	1D/	-o-
.	.	2.A/	-que	.	.
=84-	=84-	=84-	=84-	=84-	=84-
4AA/	-que	.	.	4C/	-quae
4BB-X/	pro-	4F/	pro-	4D/	pro-
2AA/	-ce-	2A/	-ce-	2E/	-ce-
*	*	*custos:A	*	*	*
!	!	!	!	!LO:TX:t=P:problem=kreska pseudotaktowa	!
2D/	-dit	1F/	-dit	1D/	-dit
2D/	qui	.	.	.	.
!	!	!LO:PB:g=original	!	!	!
=85-	=85-	=85-	=85-	=85-	=85-
1F\	cum	2.A/	qui	2D/	Qui
.	.	.	.	2F/	cum
.	.	4A/	cum	.	.
2.C/	Pa-	2c\	Pa-	2E/	Pa-
!	!	!	!	!LO:TX:t=P:problem=kreska pseudotaktowa	!
.	.	2G/	-tre	2C/	-tre
4C/	-tre	.	.	.	.
=86-	=86-	=86-	=86-	=86-	=86-
2AA/	et	2c\	et	2C/	et
4GG/	fi-	4B-X\	fi-	4D/	Fi-
*	*	*	*	*custos:F	*
4GG/	-li-	4B-X\	-li-	4E/	-l-
!	!	!	!	!LO:LB:g=original	!
2FF/	-o	1A\	-o	1F/	-o
1F\	Si-	.	.	.	.
=87-	=87-	=87-	=87-	=87-	=87-
.	.	0r	.	2A/	ſi-
2F\	-mul	.	.	2c\	-mul
2G\	a-	.	.	2B\	a-
!	!	!	!	!LO:TX:t=P:problem=kreska pseudotaktowa	!
2F\	-do-	.	.	2A/	-do-
=88-	=88-	=88-	=88-	=88-	=88-
1E\	-ra-	1r	.	(2B\	-ra-
!	!	!	!	!LO:TX:t=P:problem=♯ below	!
.	.	.	.	2c#X\)	.
*custos:G	*	*	*	*	*
!	!	!	!	!LO:TX:t=P:problem=kreska pseudotaktowa	!
1D\	-tur	2r	.	1d\	-tur
.	.	2d\	et	.	.
!LO:PB:g=original	!	!	!	!	!
=89-	=89-	=89-	=89-	=89-	=89-
2r	.	4B\	Con-	2d\	et
.	.	4B\	-glo-	.	.
!	!	!	!	!LO:TX:t=P:problem=kreska pseudotaktowa	!
2G\	et	2.G/	-ri-	2B\	Con-
4E\	Con-	.	.	2c\	-glo-
4C/	-glo-	4G/	-fi-	.	.
2F\	-ri-	4A/	-ca-	2A/	-ri-
.	.	4B\	.	.	.
=90-	=90-	=90-	=90-	=90-	=90-
2E\	-fi-	2c\	.	2G/	-fi-
(1D\	-ca-	2d\	.	2F/	-ca-
*	*	*custos:A	*	*	*
!	!	!	!	!LO:TX:t=P:problem=kreska pseudotaktowa	!
.	.	1A\	.	1E/	-tur
!LO:TX:t=P:problem=♯ below	!	!	!	!	!
2C#X/)	.	.	.	.	.
!	!	!LO:LB:g=original	!	!	!
=91-	=91-	=91-	=91-	=91-	=91-
2D/	-tur	2A/	-tur	2D/	qui
4E\	qui	2r	.	2C/	lo-
4E\	lo-	.	.	.	.
2F\	-cu-	2r	.	2D/	-cu-
*	*	*	*	*custos:D	*
!	!	!	!	!LO:TX:t=P:problem=kreska pseudotaktowa	!
2G\	-tus	4G/	qui	2E/	-tus
.	.	4G/	lo-	.	.
!	!	!	!	!LO:PB:g=original	!
=92-	=92-	=92-	=92-	=92-	=92-
2F\	eſt	2A/	-cu-	2D/	eſt
2D/	per	2B\	-tus	2F/	per
!	!	!LO:TX:t=P:problem=♯ below	!	!	!
2AA/	Pro-	4c#X\	eſt	2A/	Pro-
!	!	!LO:TX:t=P:problem=♯ below	!	!	!
.	.	4c#\	per	.	.
2BB-X/	.	2d\	Pro-	4G/	.
.	.	.	.	4F/	.
=93-	=93-	=93-	=93-	=93-	=93-
!	!	!	!	!LO:TX:t=P:problem=kreska pseudotaktowa	!
2GG/	-phe-	2d\	-phe-	1E/	-phe-
*custos:D	*	*	*	*	*
!	!	!LO:TX:t=P:problem=♯ below	!	!	!
2AA/	.	2c#X\	.	.	.
!LO:LB:g=original	!	!	!	!LO:TX:t=P:problem=kreska pseudotaktowa	!
1D\	-tas	1d\	-tas	1D/	-tas
=94-	=94-	=94-	=94-	=94-	=94-
2F\	et	2c\	et	2A/	et
4C/	v-	4c\	v-	4G/	V-
!	!	!	!	!LO:TX:t=P:problem=kreska pseudotaktowa	!
4C/	-na(m)	4c\	-nam	4G/	-na(m)
2F\	San-	2c\	San-	2A/	San-
!	!	!	!	!LO:TX:t=P:problem=kreska pseudotaktowa	!
2E\	-cta(m)	2G/	-cta(m)	2c\	-cta(m)
=95-	=95-	=95-	=95-	=95-	=95-
2D/	Ca-	2A/	Ca-	2d\	Ca-
4GG/	-tho-	4B\	-tho-	4d\	-tho-
*	*	*custos:F	*	*	*
!	!	!	!	!LO:TX:t=P:problem=kreska pseudotaktowa	!
4GG/	-li-	4G/	-li-	4d\	-li-
!	!	!LO:LB:g=original	!	!	!
2.D/	-cam	2F/	-cam	1A\	-cam
.	.	4r	.	.	.
4D/	et	4F/	et	.	.
=96-	=96-	=96-	=96-	=96-	=96-
4F\	A-	4A/	A-	2A/	et
4F\	-po-	4A/	-po-	.	.
4.C/	-ſto-	4.E/	-sto-	4c\	A-
!	!	!	!	!LO:TX:t=P:problem=kreska pseudotaktowa	!
.	.	.	.	4c\	-po-
8D/	-li-	8F/	.	.	.
2E\	-cam	4G/	-li-	2G/	-sto-
.	.	4E/	-cam	.	.
2D/	Ec-	[2.A/	Ec-	4F/	-li-
*	*	*	*	*custos:E	*
.	.	.	.	4F/	-cam
!	!	!	!	!LO:LB:g=original	!
=97-	=97-	=97-	=97-	=97-	=97-
4AA/	-cle-	.	.	2E/	Ec-
4AA/	-si-	4A/]	.	.	.
*custos:D	*	*	*	*	*
2D/	-am	4.A/	-cle-	4F/	-cle-
!	!	!	!	!LO:TX:t=P:problem=kreska pseudotaktowa	!
.	.	.	.	4F/	-si-
.	.	8G/	-si-	.	.
!LO:LB:g=original	!	!	!	!	!
00r	.	1F/	-am	1D/	-am
=98-	=98-	=98-	=98-	=98-	=98-
.	.	2r	.	2D/	Con-
.	.	2A/	Con-	4A/	-fi-
!	!	!	!	!LO:TX:t=P:problem=kreska pseudotaktowa	!
.	.	.	.	4A/	-te-
.	.	4e\	-fi-	2E/	-or
.	.	4e\	-te-	.	.
!	!	!	!	!LO:TX:t=P:problem=kreska pseudotaktowa	!
.	.	4B\	or	2G/	V-
*	*	*custos:d	*	*	*
.	.	4B\	v-	.	.
!	!	!LO:LB:g=original	!	!	!
=99-	=99-	=99-	=99-	=99-	=99-
.	.	4d\	-num	4G/	-nu(m)
.	.	4d\	ba-	4F/	bap-
!	!	!	!	!LO:TX:t=P:problem=kreska pseudotaktowa	!
.	.	4d\	-pti-	2E/	-ti-
!	!	!LO:TX:t=P:problem=♯ below	!	!	!
.	.	4c#X\	.	.	.
4D/	in	1d\	-ſma	1D/	-ſma
4D/	re-	.	.	.	.
4E\	-miſ-	.	.	.	.
4E\	-si-	.	.	.	.
=100-	=100-	=100-	=100-	=100-	=100-
2F\	-o-	1r	.	4A/	in
.	.	.	.	4A/	re-
2E\	-nem	.	.	4B\	-miſ-
!	!	!	!	!LO:TX:t=P:problem=kreska pseudotaktowa	!
.	.	.	.	4B\	-si-
2A\	pec-	4A/	in	2c\	-o-
.	.	4A/	re-	.	.
2G\	-ca-	4B\	-miſ-	2B\	-ne(m)
.	.	4B\	-si-	.	.
=101-	=101-	=101-	=101-	=101-	=101-
2A\	-to-	4c\	-o-	4A/	pec-
.	.	4c\	-nem	4A/	-ca-
*	*	*	*	*custos:A	*
!	!	!	!	!LO:TX:t=P:problem=kreska pseudotaktowa	!
!	!	!	!	!LO:TX:t=P:problem=♯ below	!
2E\	.	4B\	pec-	2G#X/	-to-
.	.	4B\	-ca-	.	.
!	!	!	!	!LO:LB:g=original	!
2AA/	-rum	2A/	-to-	1A\	-rum
4A\	et	2A/	-rum	.	.
4A\	ex-	.	.	.	.
=102-	=102-	=102-	=102-	=102-	=102-
!LO:TX:t=P:problem=♯ below	!	!	!	!	!
2F#X\	-pe-	1r	.	2d\	et
!	!	!	!	!LO:TX:t=P:problem=kreska pseudotaktowa	!
2D/	-xto	.	.	2d\	ex-
2.G\	re-	4d\	et	2B\	-pe-
.	.	4d\	ex-	.	.
!	!	!	!	!LO:TX:t=P:problem=kreska pseudotaktowa	!
.	.	2B\	-pe-	2B\	-cto
4G\	-ſur-	.	.	.	.
=103-	=103-	=103-	=103-	=103-	=103-
4E\	-re-	2G/	-cto	2c\	re-
4E\	-cti-	.	.	.	.
*custos:F	*	*	*	*	*
!	!	!	!	!LO:TX:t=P:problem=kreska pseudotaktowa	!
2C/	-o-	2.c\	re-	2c\	-ſur-
!LO:LB:g=original	!	!	!	!	!
1F\	-nem	.	.	2A/	-re-
.	.	4c\	-ſur-	.	.
!	!	!	!	!LO:TX:t=P:problem=kreska pseudotaktowa	!
.	.	4A/	-re-	2A/	-cti-
.	.	4F/	-cti-	.	.
!	!	!LO:LB:g=original	!	!	!
=104-	=104-	=104-	=104-	=104-	=104-
1C/	mor-	2E/	-o-	1G/	-o-
.	.	2C/	-nem	.	.
1FF/	-tu-	1.c\	Mor-	1A\	-nem
=105-	=105-	=105-	=105-	=105-	=105-
1GG/	-o-	.	.	1.G/	mor-
.	.	2B-X\	-tu-	.	.
0AA/	.	0A\	-o-	.	.
.	.	.	.	2F/	-tu-
=106-	=106-	=106-	=106-	=106-	=106-
.	.	.	.	1E/	-o-
!	!	!	!	!LO:TX:t=P:problem=kreska pseudotaktowa	!
2D/	-rum	1F/	-rum	1D/	-rum
2D/	et	.	.	.	.
=107-	=107-	=107-	=107-	=107-	=107-
2A\	vi-	2r	.	2D/	et
4AA/	-tam	2A/	et	2A/	Vi-
4AA/	ven-	.	.	.	.
2C/	-tu-	2e\	Vi-	2E/	-ta
*	*	*	*	*custos:F	*
!	!	!	!	!LO:TX:t=P:problem=kreska pseudotaktowa	!
2GG/	-ri	4B\	-ta(m)	2G/	Ven-
.	.	4B\	Ven-	.	.
!	!	!	!	!LO:LB:g=original	!
=108-	=108-	=108-	=108-	=108-	=108-
1D\	.	4d\	-tu-	2F/	-tu-
.	.	4A/	-ri	.	.
.	.	1d\	Sae-	2F/	-ri
2.AA/	Sae-	.	.	2.E/	Sae-
!	!	!LO:TX:t=P:problem=♯ below	!	!	!
.	.	2c#X\	-cu-	.	.
!	!	!	!	!LO:TX:t=P:problem=kreska pseudotaktowa	!
4AA/	-cu-	.	.	4E/	-cu-
=109-	=109-	=109-	=109-	=109-	=109-
2D/	-li	1d\	-li	1D/	-li
*custos:E	*	*	*	*	*
2F\	A-	.	.	.	.
!LO:LB:g=original	!	!	!	!	!
*	*	*	*	*lig	*
4E\	.	2r	.	1C/	A-
4F\	.	.	.	.	.
4G\	.	2c\	A-	.	.
4E\	.	.	.	.	.
=110-	=110-	=110-	=110-	=110-	=110-
4F\	.	2A/	.	1D/	.
4G\	.	.	.	.	.
2A\	.	4d\	.	.	.
*	*	*custos:B	*	*	*
.	.	4c\	.	.	.
!	!	!LO:LB:g=original	!	!	!
*	*	*	*	*Xlig	*
1G\	.	4B\	.	1E/	.
.	.	4A/	.	.	.
.	.	4B\	.	.	.
.	.	4c\	.	.	.
=111-	=111-	=111-	=111-	=111-	=111-
1F\	.	2d\	.	1D/	.
.	.	2A/	.	.	.
*	*	*	*	*lig	*
2.E\	.	1B\	.	1G/	.
4D/	.	.	.	.	.
=112-	=112-	=112-	=112-	=112-	=112-
2.C/	.	2.e\	.	1E/	.
4BB/	.	4d\	.	.	.
*	*	*	*	*Xlig	*
2.AA/	.	2.c\	.	1F/	.
4GG/	.	4B\	.	.	.
=113-	=113-	=113-	=113-	=113-	=113-
1FF/	.	2A/	.	1A\	.
.	.	2c\	.	.	.
1GG/	.	1B-X\	.	1.G/	.
=114-	=114-	=114-	=114-	=114-	=114-
0AA/	-men	0A\	.	.	.
.	.	.	.	2F/	.
.	.	.	.	1E/	men.-
=115-	=115-	=115-	=115-	=115-	=115-
!	!	!LO:TX:t=P:problem=♯ below	!	!	!
1D\	A-	1F#X/	.	00.D/	.
0GG/	.	2.B-X\	-men	.	.
.	.	4A/	.	.	.
=116-	=116-	=116-	=116-	=116-	=116-
.	.	1.G/	A-	.	.
0.D\	-men	.	.	.	.
.	.	4F#X/	.	.	.
.	.	4E/	.	.	.
=117-	=117-	=117-	=117-	=117-	=117-
.	.	0F#X/;	-men.	.	.
==	==	==	==	==	==
*-	*-	*-	*-	*-	*-
!!!system-decoration: [(s1,s2,s3)]
!!!RDF**kern: > = above
!!!RDF**kern: < = below
!!!EED: Leszek Kubiak
!!!EEV: 2021-03-22
!!!ENC: Krzysztof Stępień
!!!END: 2021-03-08
